images/RChain_logo.svg

<svg height="250" viewBox="0 0 250 250" width="250" xmlns="http://www.w3.org/2000/svg"><g fill="#cc1e46"><path d="m112.300781.644531c24.554688-2.519531 49.824219 2.40625 71.5625 14.105469 13.097657 6.941406 24.875 16.3125 34.710938 27.398438 16.679687 18.726562 27.453125 42.625 30.472656 67.511718 2.894531 23.097656-.84375 46.984375-10.71875 68.066406-7.1875 15.542969-17.667969 29.53125-30.492187 40.875-18.726563 16.671876-42.625 27.429688-67.507813 30.457032-22.90625 2.855468-46.578125-.808594-67.527344-10.496094-15.628906-7.160156-29.597656-17.488281-41.027343-30.328125-19.132813-21.25-30.515626-49.300781-31.648438-77.859375-1.011719-22.398438 4.195312-45.035156 14.886719-64.75 7.695312-14.355469 18.316406-27.101562 30.910156-37.421875 18.796875-15.421875 42.191406-25.113281 66.378906-27.558594m-19.984375 71.585938c-5.476562-7.273438-13.925781-12.515625-23.152344-12.882813-9.625-.570312-19.109374 4.007813-25.398437 11.164063-4.769531 5.5-7.039063 12.785156-7.125 19.992187-.039063 13.777344-.042969 27.5625-.015625 41.347656-.160156 1.824219 1.488281 3.105469 3.214844 2.914063 39 .105469 78.015625-.125 117.007812.125-.125 8.527344-.015625 17.054687.605469 25.558594-11.125 8.097656-24.15625 13.808593-37.78125 15.933593-1.773437.40625-4.761719-.070312-5.15625 2.359376-.167969 4.578124-.011719 9.171874-.066406 13.75-.261719 1.613281 1 3.261718 2.675781 3.238281 16.472656-1.273438 32.476562-7.375 45.660156-17.308594 4.875 6.335937 11.832032 11.328125 19.875 12.53125 11.363282 2.023437 23.3125-3.460937 30.105469-12.597656 4.304687-5.8125 5.820313-13.175781 5.789063-20.292969-.039063-13.089844.117187-26.179688-.074219-39.261719.144531-2.078125-1.808594-3.136719-3.65625-2.972656-38.875-.078125-77.75.042969-116.613281-.0625-.226563-7.699219.339843-15.429687-.5-23.105469-.085938-1.070312-.335938-2.527344.789062-3.160156 11.910156-8.144531 25.613281-14.042969 40.03125-15.636719 1.5625-.039062 2.285156-1.800781 2.175781-3.160156 0-4.375.109375-8.761719-.054687-13.132813.0625-1.828124-1.738282-2.875-3.394532-2.546874-16.214843 1.324218-31.933593 7.449218-44.941406 17.207031zm0 0"/><path d="m52.347656 92.875c.183594-7.359375 6.917969-13.832031 14.316406-13.535156 7.578126-.144532 14.402344 6.527344 14.546876 14.078125.164062 7.875.0625 15.75.046874 23.625-9.632812.214843-19.257812.066406-28.894531.082031-.046875-8.089844-.03125-16.171875-.015625-24.25"/><path d="m175.070312 134.21875c9.625-.015625 19.25-.050781 28.875.023438.074219 7.699218.03125 15.398437.03125 23.097656.058594 5.867187-3.613281 11.703125-9.179687 13.765625-6.035156 2.332031-13.414063.023437-17.109375-5.269531-1.777344-2.5-2.710938-5.503907-2.664062-8.574219.03125-7.675781-.023438-15.359375.046874-23.042969"/></g></svg>

<svg xmlns="http://www.w3.org/2000/svg" xmlns:xlink="http://www.w3.org/1999/xlink" width="250px" height="250px" viewBox="0 0 250 250" version="1.1">
<g id="surface1">
<path style=" stroke:none;fill-rule:nonzero;fill:rgb(80.000001%,11.764706%,27.450982%);fill-opacity:1;" d="M 112.300781 0.644531 C 136.855469 -1.875 162.125 3.050781 183.863281 14.75 C 196.960938 21.691406 208.738281 31.0625 218.574219 42.148438 C 235.253906 60.875 246.027344 84.773438 249.046875 109.660156 C 251.941406 132.757812 248.203125 156.644531 238.328125 177.726562 C 231.140625 193.269531 220.660156 207.257812 207.835938 218.601562 C 189.109375 235.273438 165.210938 246.03125 140.328125 249.058594 C 117.421875 251.914062 93.75 248.25 72.800781 238.5625 C 57.171875 231.402344 43.203125 221.074219 31.773438 208.234375 C 12.640625 186.984375 1.257812 158.933594 0.125 130.375 C -0.886719 107.976562 4.320312 85.339844 15.011719 65.625 C 22.707031 51.269531 33.328125 38.523438 45.921875 28.203125 C 64.71875 12.78125 88.113281 3.089844 112.300781 0.644531 M 92.316406 72.230469 C 86.839844 64.957031 78.390625 59.714844 69.164062 59.347656 C 59.539062 58.777344 50.054688 63.355469 43.765625 70.511719 C 38.996094 76.011719 36.726562 83.296875 36.640625 90.503906 C 36.601562 104.28125 36.597656 118.066406 36.625 131.851562 C 36.464844 133.675781 38.113281 134.957031 39.839844 134.765625 C 78.839844 134.871094 117.855469 134.640625 156.847656 134.890625 C 156.722656 143.417969 156.832031 151.945312 157.453125 160.449219 C 146.328125 168.546875 133.296875 174.257812 119.671875 176.382812 C 117.898438 176.789062 114.910156 176.3125 114.515625 178.742188 C 114.347656 183.320312 114.503906 187.914062 114.449219 192.492188 C 114.1875 194.105469 115.449219 195.753906 117.125 195.730469 C 133.597656 194.457031 149.601562 188.355469 162.785156 178.421875 C 167.660156 184.757812 174.617188 189.75 182.660156 190.953125 C 194.023438 192.976562 205.972656 187.492188 212.765625 178.355469 C 217.070312 172.542969 218.585938 165.179688 218.554688 158.0625 C 218.515625 144.972656 218.671875 131.882812 218.480469 118.800781 C 218.625 116.722656 216.671875 115.664062 214.824219 115.828125 C 175.949219 115.75 137.074219 115.871094 98.210938 115.765625 C 97.984375 108.066406 98.550781 100.335938 97.710938 92.660156 C 97.625 91.589844 97.375 90.132812 98.5 89.5 C 110.410156 81.355469 124.113281 75.457031 138.53125 73.863281 C 140.09375 73.824219 140.816406 72.0625 140.707031 70.703125 C 140.707031 66.328125 140.816406 61.941406 140.652344 57.570312 C 140.714844 55.742188 138.914062 54.695312 137.257812 55.023438 C 121.042969 56.347656 105.324219 62.472656 92.316406 72.230469 Z M 92.316406 72.230469 "/>
<path style=" stroke:none;fill-rule:nonzero;fill:rgb(80.000001%,11.764706%,27.450982%);fill-opacity:1;" d="M 52.347656 92.875 C 52.53125 85.515625 59.265625 79.042969 66.664062 79.339844 C 74.242188 79.195312 81.066406 85.867188 81.210938 93.417969 C 81.375 101.292969 81.273438 109.167969 81.257812 117.042969 C 71.625 117.257812 62 117.109375 52.363281 117.125 C 52.316406 109.035156 52.332031 100.953125 52.347656 92.875 "/>
<path style=" stroke:none;fill-rule:nonzero;fill:rgb(80.000001%,11.764706%,27.450982%);fill-opacity:1;" d="M 175.070312 134.21875 C 184.695312 134.203125 194.320312 134.167969 203.945312 134.242188 C 204.019531 141.941406 203.976562 149.640625 203.976562 157.339844 C 204.035156 163.207031 200.363281 169.042969 194.796875 171.105469 C 188.761719 173.4375 181.382812 171.128906 177.6875 165.835938 C 175.910156 163.335938 174.976562 160.332031 175.023438 157.261719 C 175.054688 149.585938 175 141.902344 175.070312 134.21875 "/>
</g>
</svg>
